loleaflet/images/lc_styleapply3fstyle3astring3dheading20226familyname3astring3dparagraphstyles.svg

<svg height="24" viewBox="0 0 24 24" width="24" xmlns="http://www.w3.org/2000/svg"><path d="m4 4v16h2v-7h6v5h2v-5-2-7h-2v7h-6v-7z" fill="#3a3a38"/><path d="m17.13363 12.000005c.4098 0 .781737.0556 1.115812.166791.338531.107223.625836.260114.861917.458674.240534.198561.425389.438819.554566.720775.133629.277985.200444.585753.200444.923306 0 .289898-.04677.55994-.140311.810126-.09354.246215-.218263.482502-.374164.708861-.155902.222387-.33853.440804-.547885.655249-.209354.210474-.429844.422934-.661471.63738l-2.142538 1.918833 3.432071-.0038c.169265 0 .305122.04368.407573.13105.106904.087349.160356.202514.160356.345478v.527272h-6v-.482501c0-.09134.02005-.188633.06014-.291885.04455-.107222.120271-.206502.227172-.29784l2.579068-2.364854c.218263-.202532.4098-.395135.57461-.57781.169266-.182677.309578-.363367.420936-.542071.115813-.182675.202673-.365351.260579-.548027.05791-.186647.08686-.381236.08686-.583767 0-.365351-.10245-.64135-.30735-.827997s-.494432-.27997-.868597-.27997c-.160356 0-.307349.02184-.44098.06553-.13363.04368-.253897.103253-.360802.178704-.106903.07545-.198217.164805-.273942.268057-.07572.103251-.133626.214445-.173718.333581-.07127.182676-.169268.301812-.293988.357409-.120267.05559-.287305.06751-.501112.03574l-.855236-.13105c.06681-.38521.187079-.720779.360798-1.006706.173719-.289898.389755-.530156.648107-.720774.262807-.194589.563475-.339538.902005-.434846.33853-.099282.701559-.148923 1.08908-.148918z" fill="#1e8bcd"/></svg>

<?xml version="1.0" encoding="UTF-8" standalone="no"?>
<svg
   xmlns:dc="http://purl.org/dc/elements/1.1/"
   xmlns:cc="http://creativecommons.org/ns#"
   xmlns:rdf="http://www.w3.org/1999/02/22-rdf-syntax-ns#"
   xmlns:svg="http://www.w3.org/2000/svg"
   xmlns="http://www.w3.org/2000/svg"
   xmlns:sodipodi="http://sodipodi.sourceforge.net/DTD/sodipodi-0.dtd"
   xmlns:inkscape="http://www.inkscape.org/namespaces/inkscape"
   viewBox="0 0 24 24"
   version="1.1"
   id="svg6"
   sodipodi:docname="lc_styleapply3fstyle3astring3dheading20226familyname3astring3dparagraphstyles.svg"
   width="24"
   height="24"
   inkscape:version="0.92.5 (2060ec1f9f, 2020-04-08)">
  <metadata
     id="metadata12">
    <rdf:RDF>
      <cc:Work
         rdf:about="">
        <dc:format>image/svg+xml</dc:format>
        <dc:type
           rdf:resource="http://purl.org/dc/dcmitype/StillImage" />
        <dc:title></dc:title>
      </cc:Work>
    </rdf:RDF>
  </metadata>
  <defs
     id="defs10" />
  <sodipodi:namedview
     pagecolor="#ffffff"
     bordercolor="#666666"
     borderopacity="1"
     objecttolerance="10"
     gridtolerance="10"
     guidetolerance="10"
     inkscape:pageopacity="0"
     inkscape:pageshadow="2"
     inkscape:window-width="1366"
     inkscape:window-height="700"
     id="namedview8"
     showgrid="true"
     inkscape:zoom="14.75"
     inkscape:cx="1.6839387"
     inkscape:cy="7.4729083"
     inkscape:window-x="0"
     inkscape:window-y="0"
     inkscape:window-maximized="1"
     inkscape:current-layer="svg6">
    <inkscape:grid
       type="xygrid"
       id="grid822" />
  </sodipodi:namedview>
  <path
     d="m 4,4 v 16 h 2 v -7 h 6 v 5 h 2 V 13 11 4 h -2 v 7 H 6 V 4 Z"
     id="path2"
     inkscape:connector-curvature="0"
     style="fill:#3a3a38" />
  <path
     d="m 17.13363,12.000005 c 0.4098,0 0.781737,0.0556 1.115812,0.166791 0.338531,0.107223 0.625836,0.260114 0.861917,0.458674 0.240534,0.198561 0.425389,0.438819 0.554566,0.720775 0.133629,0.277985 0.200444,0.585753 0.200444,0.923306 0,0.289898 -0.04677,0.55994 -0.140311,0.810126 -0.09354,0.246215 -0.218263,0.482502 -0.374164,0.708861 -0.155902,0.222387 -0.33853,0.440804 -0.547885,0.655249 -0.209354,0.210474 -0.429844,0.422934 -0.661471,0.63738 L 16,19 19.432071,18.9962 c 0.169265,0 0.305122,0.04368 0.407573,0.13105 C 19.946548,19.214599 20,19.329764 20,19.472728 V 20 h -6 v -0.482501 c 0,-0.09134 0.02005,-0.188633 0.06014,-0.291885 0.04455,-0.107222 0.120271,-0.206502 0.227172,-0.29784 L 16.86638,16.56292 c 0.218263,-0.202532 0.4098,-0.395135 0.57461,-0.57781 0.169266,-0.182677 0.309578,-0.363367 0.420936,-0.542071 0.115813,-0.182675 0.202673,-0.365351 0.260579,-0.548027 0.05791,-0.186647 0.08686,-0.381236 0.08686,-0.583767 0,-0.365351 -0.10245,-0.64135 -0.30735,-0.827997 -0.2049,-0.186647 -0.494432,-0.27997 -0.868597,-0.27997 -0.160356,0 -0.307349,0.02184 -0.44098,0.06553 -0.13363,0.04368 -0.253897,0.103253 -0.360802,0.178704 -0.106903,0.07545 -0.198217,0.164805 -0.273942,0.268057 -0.07572,0.103251 -0.133626,0.214445 -0.173718,0.333581 -0.07127,0.182676 -0.169268,0.301812 -0.293988,0.357409 -0.120267,0.05559 -0.287305,0.06751 -0.501112,0.03574 l -0.855236,-0.13105 c 0.06681,-0.38521 0.187079,-0.720779 0.360798,-1.006706 0.173719,-0.289898 0.389755,-0.530156 0.648107,-0.720774 C 15.405352,12.38918 15.70602,12.244231 16.04455,12.148923 16.38308,12.049641 16.746109,12 17.13363,12.000005 Z"
     id="path4"
     inkscape:connector-curvature="0"
     style="fill:#1e8bcd" />
</svg>
